Newaita/actions/24/zoom-in-x.svg

<svg height="24" viewBox="0 0 24 24" width="24" xmlns="http://www.w3.org/2000/svg"><g fill="#424242"><path d="m3.96875 2.171875c-1.097656 0-1.984375.886719-1.984375 1.984375v3.96875h1.984375v-2.976562c0-.550782.441406-.992188.992188-.992188h2.976562v-1.984375zm15.875 13.890625v2.976562c0 .550782-.441406.992188-.992188.992188h-2.976562v1.988281h3.96875c1.101562 0 1.988281-.886719 1.988281-1.988281v-3.96875zm0 0"/><path d="m2.976562 14.078125c-.550781 0-.992187.445313-.992187.992187v5.957032c0 .546875.441406.992187.992187.992187h5.953126c.550781 0 .992187-.445312.992187-.992187v-5.957032c0-.546874-.441406-.992187-.992187-.992187zm1.488282 1.984375h2.976562c.277344 0 .496094.222656.496094.496094v2.976562c0 .277344-.21875.496094-.496094.496094h-2.976562c-.273438 0-.496094-.21875-.496094-.496094v-2.976562c0-.273438.222656-.496094.496094-.496094zm0 0"/><path d="m17.363281 4.652344v1.984375h-4.945312c-.277344 0-.496094-.21875-.496094-.496094v-.992187c0-.273438.21875-.496094.496094-.496094zm0 0"/><path d="m16.867188 9.117188v-6.945313l4.964843 3.472656zm0 0"/></g></svg>

<?xml version="1.0" encoding="UTF-8"?>
<svg xmlns="http://www.w3.org/2000/svg" xmlns:xlink="http://www.w3.org/1999/xlink" width="24px" height="24px" viewBox="0 0 24 24" version="1.1">
<g id="surface1">
<path style=" stroke:none;fill-rule:nonzero;fill:rgb(25.882354%,25.882354%,25.882354%);fill-opacity:1;" d="M 3.96875 2.171875 C 2.871094 2.171875 1.984375 3.058594 1.984375 4.15625 L 1.984375 8.125 L 3.96875 8.125 L 3.96875 5.148438 C 3.96875 4.597656 4.410156 4.15625 4.960938 4.15625 L 7.9375 4.15625 L 7.9375 2.171875 Z M 19.84375 16.0625 L 19.84375 19.039062 C 19.84375 19.589844 19.402344 20.03125 18.851562 20.03125 L 15.875 20.03125 L 15.875 22.019531 L 19.84375 22.019531 C 20.945312 22.019531 21.832031 21.132812 21.832031 20.03125 L 21.832031 16.0625 Z M 19.84375 16.0625 "/>
<path style=" stroke:none;fill-rule:nonzero;fill:rgb(25.882354%,25.882354%,25.882354%);fill-opacity:1;" d="M 2.976562 14.078125 C 2.425781 14.078125 1.984375 14.523438 1.984375 15.070312 L 1.984375 21.027344 C 1.984375 21.574219 2.425781 22.019531 2.976562 22.019531 L 8.929688 22.019531 C 9.480469 22.019531 9.921875 21.574219 9.921875 21.027344 L 9.921875 15.070312 C 9.921875 14.523438 9.480469 14.078125 8.929688 14.078125 Z M 4.464844 16.0625 L 7.441406 16.0625 C 7.71875 16.0625 7.9375 16.285156 7.9375 16.558594 L 7.9375 19.535156 C 7.9375 19.8125 7.71875 20.03125 7.441406 20.03125 L 4.464844 20.03125 C 4.191406 20.03125 3.96875 19.8125 3.96875 19.535156 L 3.96875 16.558594 C 3.96875 16.285156 4.191406 16.0625 4.464844 16.0625 Z M 4.464844 16.0625 "/>
<path style=" stroke:none;fill-rule:nonzero;fill:rgb(25.882354%,25.882354%,25.882354%);fill-opacity:1;" d="M 17.363281 4.652344 L 17.363281 6.636719 L 12.417969 6.636719 C 12.140625 6.636719 11.921875 6.417969 11.921875 6.140625 L 11.921875 5.148438 C 11.921875 4.875 12.140625 4.652344 12.417969 4.652344 Z M 17.363281 4.652344 "/>
<path style=" stroke:none;fill-rule:nonzero;fill:rgb(25.882354%,25.882354%,25.882354%);fill-opacity:1;" d="M 16.867188 9.117188 L 16.867188 2.171875 L 21.832031 5.644531 Z M 16.867188 9.117188 "/>
</g>
</svg>
